svg/file_word_box_outline.svg

<svg xmlns="http://www.w3.org/2000/svg" viewBox="0 0 24 24"><path d="M5 3c-1.11 0-2 .89-2 2v14c0 1.11.89 2 2 2h14c1.11 0 2-.89 2-2V5c0-1.11-.89-2-2-2zm0 2h14v14H5zm12.9 2-2.4 10H14l-2-7.5-2 7.5H8.5L6.1 7h1.7l1.54 7.5L11.3 7h1.4l1.97 7.5L16.2 7z"/></svg>

<?xml version="1.0" encoding="UTF-8"?><!DOCTYPE svg PUBLIC "-//W3C//DTD SVG 1.1//EN" "http://www.w3.org/Graphics/SVG/1.1/DTD/svg11.dtd"><svg xmlns="http://www.w3.org/2000/svg" xmlns:xlink="http://www.w3.org/1999/xlink" version="1.1" id="mdi-file-word-box-outline" width="24" height="24" viewBox="0 0 24 24"><path d="M5 3C3.89 3 3 3.89 3 5V19C3 20.11 3.89 21 5 21H19C20.11 21 21 20.11 21 19V5C21 3.89 20.11 3 19 3H5M5 5H19V19H5V5M17.9 7L15.5 17H14L12 9.5L10 17H8.5L6.1 7H7.8L9.34 14.5L11.3 7H12.7L14.67 14.5L16.2 7H17.9Z" /></svg>
